learn-bizapps-pr/achievements/power-bi-effective-filters.svg

<svg width="103" height="103" viewBox="0 0 103 103" fill="none" xmlns="http://www.w3.org/2000/svg">
<path d="M51.8625 97.9269C26.0125 97.9269 5.05249 76.9769 5.05249 51.1169C5.05249 25.2569 26.0125 4.30688 51.8625 4.30688C77.7125 4.30688 98.6725 25.2669 98.6725 51.1169C98.6725 76.9669 77.7125 97.9269 51.8625 97.9269Z" fill="url(#paint0_linear_1318:636)"/>
<path fill-rule="evenodd" clip-rule="evenodd" d="M97.7627 51.1171C97.7627 76.4671 77.2127 97.017 51.8627 97.017C26.5127 97.017 5.96266 76.4671 5.96266 51.1171C5.96266 25.767 26.5127 5.21706 51.8627 5.21706C77.2127 5.21706 97.7627 25.767 97.7627 51.1171ZM51.8627 1.47705C79.2827 1.47705 101.503 23.6971 101.503 51.1171C101.503 78.5371 79.2727 100.757 51.8627 100.757C24.4427 100.757 2.22266 78.5271 2.22266 51.1171C2.22266 23.6971 24.4427 1.47705 51.8627 1.47705Z" fill="#F2F1F0"/>
<path fill-rule="evenodd" clip-rule="evenodd" d="M94.9525 51.1169C94.9525 74.9169 75.6625 94.2069 51.8625 94.2069C28.0625 94.2069 8.77247 74.9169 8.77247 51.1169C8.77247 27.3169 28.0625 8.02687 51.8625 8.02687C75.6625 8.02687 94.9525 27.3169 94.9525 51.1169ZM51.8625 4.28687C77.7225 4.28687 98.6925 25.2569 98.6925 51.1169C98.6925 76.9769 77.7225 97.9469 51.8625 97.9469C26.0025 97.9469 5.03247 76.9769 5.03247 51.1169C5.03247 25.2569 25.9925 4.28687 51.8625 4.28687Z" fill="url(#paint1_linear_1318:636)"/>
<path opacity="0.15" d="M74.0077 22.2703L30.2077 21.9103C29.2577 21.9003 28.4877 22.6603 28.4877 23.6103L28.0177 80.7703C28.0077 81.7203 28.7677 82.4902 29.7177 82.4902L73.5177 82.8503C74.4677 82.8603 75.2377 82.1003 75.2377 81.1503L75.7077 23.9903C75.6977 23.0503 74.9377 22.2803 74.0077 22.2703Z" fill="#1F1D20"/>
<path d="M74.0177 20.4602L30.2177 20.1002C29.2677 20.0902 28.4977 20.8502 28.4977 21.8002L28.0177 78.9502C28.0077 79.9002 28.7677 80.6702 29.7177 80.6702L73.5177 81.0302C74.4677 81.0402 75.2377 80.2802 75.2377 79.3302L75.7077 22.1702C75.7077 21.2402 74.9577 20.4702 74.0177 20.4602Z" fill="#F2F2F2"/>
<path fill-rule="evenodd" clip-rule="evenodd" d="M54.4076 13.8202C55.6476 14.4902 56.3676 15.8202 56.3576 17.2202V17.5602C56.3576 17.6902 56.3476 17.8002 56.3376 17.9302L59.0276 17.9502C59.8276 17.9602 60.5776 18.3602 60.9776 19.0602C62.0976 21.0502 60.6776 23.0702 58.8076 23.0502L45.2276 22.9502C44.4276 22.9402 43.6776 22.5402 43.2776 21.8402C42.1576 19.8502 43.5776 17.8302 45.4476 17.8502L47.9476 17.8702C47.9376 17.7502 47.9376 17.6302 47.9376 17.5002V17.3902C47.9776 14.3502 51.2076 12.1002 54.4076 13.8202Z" fill="#243A5E"/>
<path d="M52.1277 19.3903C53.0877 19.4003 53.8677 18.6303 53.8777 17.6703C53.8877 16.7103 53.1177 15.9303 52.1577 15.9203C51.1977 15.9103 50.4177 16.6803 50.4077 17.6403C50.4077 18.6003 51.1677 19.3803 52.1277 19.3903Z" fill="#F2F2F2"/>
<path d="M61.0617 56.5843H52.3804V30.6143C52.3804 29.68 53.1395 28.9209 54.0738 28.9209H61.0617C61.996 28.9209 62.7551 29.68 62.7551 30.6143V54.8908C62.7551 55.8251 61.996 56.5843 61.0617 56.5843Z" fill="url(#paint2_linear_1318:636)"/>
<path d="M55.4401 56.5844H46.5408V37.4583C46.5408 36.6447 47.2026 35.9829 48.0162 35.9829H55.4362C56.2498 35.9829 56.9116 36.6447 56.9116 37.4583V55.1051C56.9155 55.9226 56.2537 56.5844 55.4401 56.5844Z" fill="url(#paint3_linear_1318:636)"/>
<path d="M49.4218 56.5841H42.8933C41.8306 56.5841 40.9702 55.7238 40.9702 54.661V44.6834C40.9702 43.6206 41.8306 42.7603 42.8933 42.7603H49.4257C50.4885 42.7603 51.3488 43.6206 51.3488 44.6834V54.661C51.3449 55.7238 50.4846 56.5841 49.4218 56.5841Z" fill="url(#paint4_linear_1318:636)"/>
<path d="M57.0776 63.0197C57.0776 62.4754 56.6386 62.0364 56.0942 62.0364H44.2858C43.7415 62.0364 43.3025 62.4754 43.3025 63.0197C43.3025 63.564 43.7415 64.003 44.2858 64.003H56.103C56.6474 63.9942 57.0776 63.564 57.0776 63.0197Z" fill="url(#paint5_linear_1318:636)"/>
<path d="M60.4226 63.0197C60.4226 62.4754 59.9836 62.0364 59.4393 62.0364H56.226C55.6817 62.0364 56.0329 62.4754 56.0329 63.0197C56.0329 63.564 55.6904 64.003 56.226 64.003H59.4481C59.9749 63.9942 60.4226 63.564 60.4226 63.0197Z" fill="#9B9BA0"/>
<path d="M54.637 63.0191C54.637 64.099 55.5061 64.9769 56.5948 64.9769C57.6835 64.9769 58.5526 64.1078 58.5526 63.0191C58.5526 61.9392 57.6659 61.0613 56.586 61.0613C55.5149 61.0788 54.637 61.9392 54.637 63.0191Z" fill="#50E6FF"/>
<path d="M53.4516 67.9621C53.4516 67.4177 53.0126 66.9788 52.4683 66.9788H44.2858C43.7415 66.9788 43.3025 67.4177 43.3025 67.9621C43.3025 68.5064 43.7415 68.9454 44.2858 68.9454H52.4859C53.0214 68.9366 53.4516 68.5064 53.4516 67.9621Z" fill="url(#paint6_linear_1318:636)"/>
<path d="M60.4226 67.9621C60.4226 67.4177 59.9836 66.9788 59.4393 66.9788H53.0653C52.521 66.9788 52.082 67.4177 52.082 67.9621C52.082 68.5064 52.521 68.9454 53.0653 68.9454H59.448C59.9748 68.9366 60.4226 68.5064 60.4226 67.9621Z" fill="#9B9BA0"/>
<path d="M50.3613 67.9622C50.3613 69.0421 51.2305 69.9201 52.3192 69.9201C53.4078 69.9201 54.277 69.0509 54.277 67.9622C54.277 66.8823 53.4078 66.0044 52.3192 66.0044C51.2305 66.0044 50.3613 66.8823 50.3613 67.9622Z" fill="#35AFE4"/>
<path d="M48.895 73.2033C48.895 72.6589 48.4561 72.22 47.9117 72.22H44.2858C43.7415 72.2288 43.3025 72.6589 43.3025 73.2033C43.3025 73.7476 43.7415 74.1866 44.2858 74.1866H47.9117C48.4561 74.169 48.895 73.7388 48.895 73.2033Z" fill="url(#paint7_linear_1318:636)"/>
<path d="M60.4227 73.2033C60.4227 72.6589 59.9837 72.22 59.4393 72.22H48.8776C48.3333 72.22 47.8943 72.6589 47.8943 73.2033C47.8943 73.7476 48.3333 74.1866 48.8776 74.1866H59.4393C59.9749 74.169 60.4227 73.7388 60.4227 73.2033Z" fill="#9B9BA0"/>
<path d="M46.3315 73.2037C46.3315 74.2836 47.2007 75.1615 48.2894 75.1615C49.3693 75.1615 50.2472 74.2923 50.2472 73.2037C50.2472 72.1238 49.378 71.2458 48.2894 71.2458C47.2007 71.2458 46.3315 72.1238 46.3315 73.2037Z" fill="#2E76BC"/>
<defs>
<linearGradient id="paint0_linear_1318:636" x1="50.0886" y1="-13.6726" x2="54.0706" y2="132.098" gradientUnits="userSpaceOnUse">
<stop stop-color="#00ABDE"/>
<stop offset="1" stop-color="#007ED8"/>
</linearGradient>
<linearGradient id="paint1_linear_1318:636" x1="3.29287" y1="-20.5057" x2="98.8204" y2="120.376" gradientUnits="userSpaceOnUse">
<stop stop-color="#007ED8"/>
<stop offset="0.7065" stop-color="#002D4C"/>
</linearGradient>
<linearGradient id="paint2_linear_1318:636" x1="57.4521" y1="31.4512" x2="57.6728" y2="54.4043" gradientUnits="userSpaceOnUse">
<stop offset="0.00753769" stop-color="#E0A310"/>
<stop offset="1" stop-color="#CA810E"/>
</linearGradient>
<linearGradient id="paint3_linear_1318:636" x1="51.4504" y1="36.7857" x2="52.1125" y2="61.0631" gradientUnits="userSpaceOnUse">
<stop offset="0.00753769" stop-color="#F2CC40"/>
<stop offset="1" stop-color="#E7B116"/>
</linearGradient>
<linearGradient id="paint4_linear_1318:636" x1="45.9096" y1="43.8244" x2="46.5718" y2="59.4943" gradientUnits="userSpaceOnUse">
<stop stop-color="#F8E17B"/>
<stop offset="0.5302" stop-color="#F6D856"/>
<stop offset="1" stop-color="#F6D856"/>
</linearGradient>
<linearGradient id="paint5_linear_1318:636" x1="49.7956" y1="61.9097" x2="57.8725" y2="84.6835" gradientUnits="userSpaceOnUse">
<stop stop-color="#15548F"/>
<stop offset="0.4179" stop-color="#243A5E"/>
<stop offset="0.9677" stop-color="#1A2C45"/>
</linearGradient>
<linearGradient id="paint6_linear_1318:636" x1="47.0215" y1="64.1448" x2="53.4401" y2="82.2425" gradientUnits="userSpaceOnUse">
<stop stop-color="#15548F"/>
<stop offset="0.4179" stop-color="#243A5E"/>
<stop offset="0.9677" stop-color="#1A2C45"/>
</linearGradient>
<linearGradient id="paint7_linear_1318:636" x1="44.4402" y1="68.5188" x2="48.7759" y2="80.7432" gradientUnits="userSpaceOnUse">
<stop stop-color="#15548F"/>
<stop offset="0.4179" stop-color="#243A5E"/>
<stop offset="0.9677" stop-color="#1A2C45"/>
</linearGradient>
</defs>
</svg>

<svg width="103" height="103" fill="none" xmlns="http://www.w3.org/2000/svg"><path d="M51.862 97.927c-25.85 0-46.81-20.95-46.81-46.81 0-25.86 20.96-46.81 46.81-46.81s46.81 20.96 46.81 46.81-20.96 46.81-46.81 46.81Z" fill="url(#a)"/><path fill-rule="evenodd" clip-rule="evenodd" d="M97.763 51.117c0 25.35-20.55 45.9-45.9 45.9-25.35 0-45.9-20.55-45.9-45.9 0-25.35 20.55-45.9 45.9-45.9 25.35 0 45.9 20.55 45.9 45.9Zm-45.9-49.64c27.42 0 49.64 22.22 49.64 49.64s-22.23 49.64-49.64 49.64c-27.42 0-49.64-22.23-49.64-49.64 0-27.42 22.22-49.64 49.64-49.64Z" fill="#F2F1F0"/><path fill-rule="evenodd" clip-rule="evenodd" d="M94.953 51.117c0 23.8-19.29 43.09-43.09 43.09-23.8 0-43.09-19.29-43.09-43.09 0-23.8 19.29-43.09 43.09-43.09 23.8 0 43.09 19.29 43.09 43.09Zm-43.09-46.83c25.86 0 46.83 20.97 46.83 46.83s-20.97 46.83-46.83 46.83-46.83-20.97-46.83-46.83 20.96-46.83 46.83-46.83Z" fill="url(#b)"/><path opacity=".15" d="m74.008 22.27-43.8-.36c-.95-.01-1.72.75-1.72 1.7l-.47 57.16c-.01.95.75 1.72 1.7 1.72l43.8.36c.95.01 1.72-.75 1.72-1.7l.47-57.16c-.01-.94-.77-1.71-1.7-1.72Z" fill="#1F1D20"/><path d="m74.018 20.46-43.8-.36c-.95-.01-1.72.75-1.72 1.7l-.48 57.15c-.01.95.75 1.72 1.7 1.72l43.8.36c.95.01 1.72-.75 1.72-1.7l.47-57.16c0-.93-.75-1.7-1.69-1.71Z" fill="#F2F2F2"/><path fill-rule="evenodd" clip-rule="evenodd" d="M54.408 13.82c1.24.67 1.96 2 1.95 3.4v.34c0 .13-.01.24-.02.37l2.69.02c.8.01 1.55.41 1.95 1.11 1.12 1.99-.3 4.01-2.17 3.99l-13.58-.1c-.8-.01-1.55-.41-1.95-1.11-1.12-1.99.3-4.01 2.17-3.99l2.5.02c-.01-.12-.01-.24-.01-.37v-.11c.04-3.04 3.27-5.29 6.47-3.57Z" fill="#243A5E"/><path d="M52.128 19.39c.96.01 1.74-.76 1.75-1.72.01-.96-.76-1.74-1.72-1.75-.96-.01-1.74.76-1.75 1.72 0 .96.76 1.74 1.72 1.75Z" fill="#F2F2F2"/><path d="M61.062 56.584H52.38v-25.97c0-.934.76-1.693 1.694-1.693h6.988c.934 0 1.693.759 1.693 1.693v24.277c0 .934-.759 1.693-1.693 1.693Z" fill="url(#c)"/><path d="M55.44 56.584h-8.9V37.458c0-.813.663-1.475 1.476-1.475h7.42c.814 0 1.476.662 1.476 1.475v17.647a1.472 1.472 0 0 1-1.472 1.48Z" fill="url(#d)"/><path d="M49.422 56.584h-6.529a1.922 1.922 0 0 1-1.923-1.923v-9.978c0-1.062.86-1.923 1.923-1.923h6.533c1.063 0 1.923.86 1.923 1.923v9.978a1.928 1.928 0 0 1-1.927 1.923Z" fill="url(#e)"/><path d="M57.078 63.02a.982.982 0 0 0-.984-.984H44.286a.982.982 0 0 0-.983.984c0 .544.439.983.983.983h11.817a.98.98 0 0 0 .975-.983Z" fill="url(#f)"/><path d="M60.423 63.02a.982.982 0 0 0-.984-.984h-3.213c-.544 0-.193.44-.193.984s-.343.983.193.983h3.222a.991.991 0 0 0 .975-.983Z" fill="#9B9BA0"/><path d="M54.637 63.02c0 1.079.87 1.957 1.958 1.957 1.089 0 1.958-.87 1.958-1.958 0-1.08-.887-1.958-1.967-1.958-1.071.018-1.949.878-1.949 1.958Z" fill="#50E6FF"/><path d="M53.452 67.962a.982.982 0 0 0-.984-.983h-8.182a.982.982 0 0 0-.983.983c0 .544.439.983.983.983h8.2a.978.978 0 0 0 .966-.983Z" fill="url(#g)"/><path d="M60.423 67.962a.982.982 0 0 0-.984-.983h-6.374a.982.982 0 0 0-.983.983c0 .544.439.983.983.983h6.383a.991.991 0 0 0 .975-.983Z" fill="#9B9BA0"/><path d="M50.361 67.962c0 1.08.87 1.958 1.958 1.958 1.089 0 1.958-.87 1.958-1.958 0-1.08-.87-1.958-1.958-1.958a1.954 1.954 0 0 0-1.958 1.958Z" fill="#35AFE4"/><path d="M48.895 73.203a.982.982 0 0 0-.983-.983h-3.626a.987.987 0 0 0-.983.983c0 .545.439.984.983.984h3.626c.544-.018.983-.448.983-.984Z" fill="url(#h)"/><path d="M60.423 73.203a.982.982 0 0 0-.984-.983H48.878a.982.982 0 0 0-.984.983c0 .545.44.984.984.984h10.561c.536-.018.984-.448.984-.984Z" fill="#9B9BA0"/><path d="M46.331 73.204c0 1.08.87 1.958 1.958 1.958 1.08 0 1.958-.87 1.958-1.958 0-1.08-.869-1.958-1.958-1.958a1.954 1.954 0 0 0-1.958 1.958Z" fill="#2E76BC"/><defs><linearGradient id="a" x1="50.089" y1="-13.673" x2="54.071" y2="132.098" gradientUnits="userSpaceOnUse"><stop stop-color="#00ABDE"/><stop offset="1" stop-color="#007ED8"/></linearGradient><linearGradient id="b" x1="3.293" y1="-20.506" x2="98.82" y2="120.376" gradientUnits="userSpaceOnUse"><stop stop-color="#007ED8"/><stop offset=".707" stop-color="#002D4C"/></linearGradient><linearGradient id="c" x1="57.452" y1="31.451" x2="57.673" y2="54.404" gradientUnits="userSpaceOnUse"><stop offset=".008" stop-color="#E0A310"/><stop offset="1" stop-color="#CA810E"/></linearGradient><linearGradient id="d" x1="51.45" y1="36.786" x2="52.112" y2="61.063" gradientUnits="userSpaceOnUse"><stop offset=".008" stop-color="#F2CC40"/><stop offset="1" stop-color="#E7B116"/></linearGradient><linearGradient id="e" x1="45.91" y1="43.824" x2="46.572" y2="59.494" gradientUnits="userSpaceOnUse"><stop stop-color="#F8E17B"/><stop offset=".53" stop-color="#F6D856"/><stop offset="1" stop-color="#F6D856"/></linearGradient><linearGradient id="f" x1="49.796" y1="61.91" x2="57.873" y2="84.683" gradientUnits="userSpaceOnUse"><stop stop-color="#15548F"/><stop offset=".418" stop-color="#243A5E"/><stop offset=".968" stop-color="#1A2C45"/></linearGradient><linearGradient id="g" x1="47.022" y1="64.145" x2="53.44" y2="82.243" gradientUnits="userSpaceOnUse"><stop stop-color="#15548F"/><stop offset=".418" stop-color="#243A5E"/><stop offset=".968" stop-color="#1A2C45"/></linearGradient><linearGradient id="h" x1="44.44" y1="68.519" x2="48.776" y2="80.743" gradientUnits="userSpaceOnUse"><stop stop-color="#15548F"/><stop offset=".418" stop-color="#243A5E"/><stop offset=".968" stop-color="#1A2C45"/></linearGradient></defs></svg>
